X:23
T:The Cliffs of Glencolumbkille
M:4/4
L:1/8
F:http://blackrosetheband.googlepages.com/ABCTUNES.ABC May 2009
C:Traditional
S:Altan Track 1
K:D
|: ADFD FAAB | ADFA BG 3)Bcd | ADFD FAAB |1 ddfd efdB :|2 ddfd edBA |
| df {fg}f2 dfaf | dgfd edBA | df {fg}f2 dfaf | gafd edBA |
df {fg}f2 dfaf | defd e2 fg | a^gab a=gfe | defd efdB ||
